build/img/folder/insert-button.svg

<svg width="24" height="24" viewBox="0 0 24 24" fill="none" xmlns="http://www.w3.org/2000/svg">
<path d="M12 2V9L14 7" stroke="#292D32" stroke-width="1.5" stroke-linecap="round" stroke-linejoin="round"/>
<path d="M12 9L10 7" stroke="#292D32" stroke-width="1.5" stroke-linecap="round" stroke-linejoin="round"/>
<path d="M1.97998 13H6.38998C6.76998 13 7.10998 13.21 7.27998 13.55L8.44998 15.89C8.78998 16.57 9.47998 17 10.24 17H13.77C14.53 17 15.22 16.57 15.56 15.89L16.73 13.55C16.9 13.21 17.25 13 17.62 13H21.98" stroke="#292D32" stroke-width="1.5" stroke-linecap="round" stroke-linejoin="round"/>
<path d="M7 4.12988C3.46 4.64988 2 6.72988 2 10.9999V14.9999C2 19.9999 4 21.9999 9 21.9999H15C20 21.9999 22 19.9999 22 14.9999V10.9999C22 6.72988 20.54 4.64988 17 4.12988" stroke="#292D32" stroke-width="1.5" stroke-linecap="round" stroke-linejoin="round"/>
</svg>

<svg width="24" height="24" fill="none" xmlns="http://www.w3.org/2000/svg"><path d="M12 2v7l2-2m-2 2l-2-2m-8.02 6h4.41c.38 0 .72.21.89.55l1.17 2.34A2 2 0 0010.24 17h3.53a2 2 0 001.79-1.11l1.17-2.34a1 1 0 01.89-.55h4.36" stroke="#292D32" stroke-width="1.5" stroke-linecap="round" stroke-linejoin="round"/><path d="M7 4.13c-3.54.52-5 2.6-5 6.87v4c0 5 2 7 7 7h6c5 0 7-2 7-7v-4c0-4.27-1.46-6.35-5-6.87" stroke="#292D32" stroke-width="1.5" stroke-linecap="round" stroke-linejoin="round"/></svg>
